X:82
T:Crossroads Fling, The
T:Kiely's
R:slide
Z:id:hn-slide-82
M:6/8
L:1/8
K:D
d2e fed | e2A ABA | def ~a3 | g2g f2e|
d2e fed | e2A ABA | ~a3 gfe |1 d3 d2A :|2 d3 d2e ||
|: ~f3 fef | ~g3 gfe | ~f3 fed | efe ede |
~f3 fef | ~g3 gfg | a2f gfe |1 d3 d2e :|2 d3 ABc|| 

